!!!COM: Music21
!!!OTL: strathspey_Anthony-Dick
!!!OMV: strathspey_Anthony-Dick
**kern
*clefG2
*k[]
*M4/4
=1
8ccL
8aJ
=||
8gL
8eJ
8dL
8cJ
8eL
8gJ
8gL
8aJ
=
8gL
8eJ
8ccL
8gJ
4d
8ccL
8aJ
=
8gL
8eJ
8dL
8cJ
8eL
8gJ
8aL
8ccJ
=
8gL
8eJ
8dL
8eJ
4c
8ccL
8aJ
=||
8gL
8eJ
8dL
8cJ
8eL
8gJ
8gL
8aJ
!!linebreak:original
=
8gL
8eJ
8ccL
8gJ
4d
8ccL
8aJ
=
8gL
8eJ
8dL
8cJ
8eL
8gJ
8aL
8ccJ
=
8gL
8eJ
8dL
8eJ
4c
8ccL
8aJ
=||
8gL
8aJ
8ccL
8ddJ
8eeL
8ccJ
8ggL
8ccJ
=
8eeL
8ccJ
8ggL
8eeJ
4dd
8ccL
8aJ
!!linebreak:original
=
8gL
8aJ
8ccL
8ddJ
8eeL
8ccJ
8ggL
8eeJ
=
8ddL
8ccJ
8ddL
8eeJ
4cc
8ccL
8aJ
=||
8gL
8aJ
8ccL
8ddJ
8eeL
8ccJ
8ggL
8ccJ
=
8eeL
8ccJ
8ggL
8eeJ
4dd
8ccL
8aJ
=
8gL
8aJ
8ccL
8ddJ
8eeL
8ggJ
8aaL
8eeJ
!!linebreak:original
=
8ggL
8eeJ
8ddL
8eeJ
4cc
8ccL
8aJ
=||
*-
